X:1
T:Astleys Ride
M:4/4
L:1/8
Q:1/4=150
C:Trad
K:D
af|: d2 d2 d2 cd|e2 e2 e2 fe|dcBA B2 c2|defg agfe|
d2 d2 d2 cd |e2 e2 e2 fe|dcBA B2 c2 |1 d4 d2 af :|2 d4 d2 z A
|:f2 f2 f2 ef|g2 g2 gabg|e2 e2 e2 de|f2 f2 fgaf|
d2 d2 d2 cd |e2 e2 e2 fe|dcBA B2 c2 |1 d4 d2 zA :|2 d4 d2 z2||
